X: 25713
T: Mary Claire
R: hornpipe
M: 4/4
K: Cdorian
|:dc|B2 FD B,DFD|EG,B,E G2 FE|DFBd f2 =ef|gf=eg fcAc|
B2 FD B,DFD|EG,B,E G2 FE|DFBd cBAc|B2 BA B2:|
|:Bc|dcBd cBAc|dBFD B,DFD|EGFE DFBd|cBAG F2 Bc|
dcBd cBAc|1 dBFD B,DFD|EGFE DFBd|cAFA B2:|
[2BdFB DFB,D|EGFE DFBd|cAFA B2||

